X: 32477
T: Plains Of Boyle, The
R: hornpipe
M: 4/4
K: Dmajor
|:(FG)|uA(FDE) FEDv(F|(3ABA) GB AFD(e|{a}fe)df edc(e|dB)A(B =cA)GB|
AFDv(E {G}FE)D(F|(3ABA) GB AFD(e|{a}fe)dB ABAG|F2 D2 D2:|
|:v(fg|af)ud(f {a}g2)fe|dfe(d BA)Fv(G|(3ABA) FA BAF(B|(3ABA) F(A {d}BA)F(f|
af)df (3ggu(g f)e|dfev(d BA)F(G|A2) AF GBA(G|F2) D2 D2:|

